src/16/actions/document-save.svg

<svg xmlns="http://www.w3.org/2000/svg" viewBox="0 0 16 16"><path d="M2 2v12h12V4.281L11.719 2H2zm1 1h2v4h6V3h.281L13 4.719V13h-1V9H3.969v4H3V3zm3 0h1.906v3H6V3zm-1 7h6v3H5v-3z" fill="currentColor" color="#5d656b"/></svg>

<svg xmlns="http://www.w3.org/2000/svg" viewBox="0 0 16 16">
  <defs id="defs3051">
    <style type="text/css" id="current-color-scheme">
      .ColorScheme-Text {
        color:#5d656b;
      }
      </style>
  </defs>
 <path style="fill:currentColor;fill-opacity:1;stroke:none" 
     d="M 2 2 L 2 14 L 3 14 L 4 14 L 10 14 L 11 14 L 12 14 L 14 14 L 14 4.28125 L 11.71875 2 L 11.6875 2 L 11 2 L 4 2 L 3 2 L 2 2 z M 3 3 L 4 3 L 5 3 L 5 6 L 5 7 L 11 7 L 11 6 L 11 3 L 11.28125 3 L 13 4.71875 L 13 5 L 13 13 L 12 13 L 12 9 L 11 9 L 5 9 L 3.96875 9 L 3.96875 13 L 3 13 L 3 3 z M 6 3 L 7.90625 3 L 7.90625 6 L 6 6 L 6 3 z M 5 10 L 6 10 L 10 10 L 11 10 L 11 13 L 10 13 L 6 13 L 5 13 L 5 10 z "
     class="ColorScheme-Text"
     />
</svg>
